X:1
T:Heralds of Light
T:Heralds of Light
T:Isaac Baker Woodbury, 1848
T:C. Cooke, 1859
T:Public Domain Courtesy of the Cyber Hymnal™
T:Public Domain Courtesy of the Cyber Hymnal™
C:Isaac Baker Woodbury, 1848
Z:Public Domain
Z:Courtesy of the Cyber Hymnal™
%%score ( 1 2 ) ( 3 4 )
L:1/8
M:3/4
K:F
V:1 treble 
V:2 treble 
V:3 bass 
V:4 bass 
V:1
 [Ac]>[Ac] | [Ac]4 [Ac]>[Ac] | [Ac]4 [Ac][Ac] | [Ac]2 [^G=B]2 [Ac]2 | [FA]4 [FA][FA] | %5
w: 1.~Speed a-|way! speed a-|way! O ye|her- alds of|light, There are|
w: 2.~Let the|Church to the|help of Je-|ho- vah draw|near— Come with|
w: 3.~We will|lay on the|al- tar our|mon- ey and|prayers: And we’ll|
w: 4.~Speed a-|way! speed a-|way with a|mes- sage from|Heav’n, To all|
 [FA]2 [F^G]2 [FA]2 | F2 F2 [EG]2 | [FA]2 [GB]2 [FA]2 | [EG]4 [EG][EG] | [EG]2 [FA]2 [GB]2 | %10
w: mil- lions en-|shroud- ed in|na- ture’s dark|night, Who are|will- ing to|
w: love, and with|faith, and with|fer- vor in|prayer! Let her|fling to the|
w: bathe ev- ery|offer- ing in|sym- pa- thy’s|tears— For the|Jews and Moham-|
w: na- tions of|men let the|tid- ings be|giv’n That Mes-|si- ah has|
 [GB]2 [FA]2 [EG]2 | [FA]2 [GB]2 [Ac]2 | [FA]4 ([FA][FA]) | [EG]2 [FA]2 [GB]2 | [GB]2 [FA]2 [EG]2 | %15
w: hear, and the|truth to re-|ceive, But *|know of no|Sav- ior on|
w: breeze the pure|ban- ner of|truth, And~en- *|list in the|strug- gle her|
w: me- dans, Gen-|tiles and all;|On Je- *|ho- vah by|night and by|
w: tri- umphed, His|foes are all|slain, And~the *|earth as an|E- den is|
 [FA]2 [GB]2 [Ac]2 | [FA]4 [Ac][Ac] | [Ac]2 [^G=B]2 [Ac]2 | [FA]4 [Ac]>[Ac] | [Ac]2 [^G=B]2 [Ac]2 | %20
w: whom to be-|lieve. O they’re|dy- ing by|thou- sands in|sin ev- ery|
w: warm- heart- ed|youth; Let the|par- ents and|child- ren, and|ev- ery- one|
w: day we will|call, And ye|her- alds of|mer- cy, oh!|make no de-|
w: blush- ing a-|gain! O great|Sav- ior, let|no- thing this|con- quest de-|
 [FA]4 [Fd]>[Fd] | [Fd]4 [Fc]>[Fc] | [Fc]6 | (c2 G2) [GB]2 | [FA]4 |] %25
w: day! Speed a-|way! speed a-|way!|speed * a-|way!|
w: say, “Speed a-|way! speed a-|way!|speed * a-|way!”|
w: lay! Speed a-|way! speed a-|way!|speed * a-|way!|
w: lay Speed a-|way! speed a-|way!|speed * a-|way!|
V:2
 x2 | x6 | x6 | x6 | x6 | x6 | x6 | x6 | x6 | x6 | x6 | x6 | x6 | x6 | x6 | x6 | x6 | x6 | x6 | %19
 x6 | x6 | x6 | x6 | E4 x2 | x4 |] %25
V:3
 [F,F]>[F,F] | [F,F]4 [F,F]>[F,F] | [F,F]4 [F,F][F,F] | [F,F]2 [F,D]2 [F,C]2 | [F,C]4 [F,C][F,C] | %5
 [F,C]2 [F,=B,]2 [F,C]2 | [F,A,]2 [A,,C]2 [C,C]2 | [F,C]2 [E,C]2 [F,C]2 | [C,C]4 [C,C][C,C] | %9
 [C,C]2 [C,C]2 [C,C]2 | [C,C]2 [C,C]2 [C,C]2 | [F,C]2 [F,C]2 [F,F]2 | [F,C]4 ([F,C][F,C]) | %13
 [C,C]2 [C,C]2 [C,C]2 | [C,C]2 [C,C]2 [C,C]2 | [F,C]2 [F,C]2 [F,F]2 | [F,C]4 [F,F][F,F] | %17
 [F,F]2 [F,D]2 [F,C]2 | [F,C]4 [F,C]>[F,C] | [F,F]2 [F,D]2 [F,C]2 | [F,C]4 B,>B, | %21
 B,4 [F,A,]>[F,A,] | [F,A,]6 | (G,2 C2) [C,C]2 | [F,C]4 |] %25
V:4
 x2 | x6 | x6 | x6 | x6 | x6 | x6 | x6 | x6 | x6 | x6 | x6 | x6 | x6 | x6 | x6 | x6 | x6 | x6 | %19
 x6 | x4 B,>B, | B,4 x2 | x6 | C,4 x2 | x4 |] %25

